X: 4809
T: Bog O' Gight
C: William Marshall
R: strathspey
B: RSCDS 48-9
Z: 2015 by John Chambers <jc:trillian.mit.edu>
N: Tune for the dance A Summer Meeting
M: 4/4
L: 1/8
K: A
A |\
"A"e>f e<c "C#/A"A>c AE | "D"F>E FA "B/E7"B/B/B Bc |\
"A"e>f e<c "C#/A"A<c A>E | "D"F<A "E7"E>C "A"A,/A,/A, A,2 |
"A"e>f e<c "C#/A"A>c AE | "D"F>E FA "B/E7"B/B/B B2 |\
"A"ce fe "C#/A"dc BA | "B/E7"B>A B>c "A"A/A/A A ||
g |\
"A"a>b a>e "C#/A"a>b a>e | "D"f>e "Bm"f>a "G#/E7"b/b/b b2 |\
"A"a>b a<e "D"f<a A<a | "E7"B>A B>c "A"A/A/A Ag |
"A"a>b a>e "C#/A"a>b a>e | "D"f>e "Bm"f<a "G#/E7"b/b/b b2 |\
"A/D"a>e f<a "C#/A"e<f c<e | "B/E7"B>A B<c "A"A/A/A A |]
